src/assets/gradient-generator.svg

<svg xmlns="http://www.w3.org/2000/svg" viewBox="0 0 388 400"><g fill="none" fill-rule="evenodd"><path fill="#E7DFF1" d="M5.8828125 68.4929687H381.616406V331.507031H5.8828125z"/><path fill="#855FB8" d="M5.8828125 68.4929687h75.146875V331.507031H5.8828125z"/><path fill="#7B49AD" d="M24.6695312 312.720312V68.4929687H5.8828125V331.507031h75.146875v-18.786719z"/><path fill="#9E7FC6" d="M81.0296875 68.4929687h75.1468755V331.507031H81.0296875z"/><path fill="#B69FD4" d="M156.176563 68.4929687h75.146874V331.507031h-75.146874z"/><path fill="#CEBFE2" d="M231.323437 68.4929687h75.146875V331.507031h-75.146875z"/><path fill="#855FB8" d="M81.0296875 312.720312h75.1468755v18.786719H81.0296875z"/><path fill="#9E7FC6" d="M156.176563 312.720312h75.146874v18.786719h-75.146874z"/><path fill="#B69FD4" d="M231.323437 312.720312h75.146875v18.786719h-75.146875z"/><path fill="#CEBFE2" d="M306.470312 312.720312h75.146876v18.786719h-75.146876z"/><path fill="#FCCA75" d="M143.652344 43.4445312L118.603125 55.96875 93.5546875 43.4445312V5.87109375h50.0976565z"/><path fill="#F3B141" d="M106.078906 5.87109375H93.5546875V43.4445312L118.603125 55.96875l12.524219-6.2625-25.048438-12.5242187z"/><path fill="#FCCA75" d="M243.847656 356.555469l25.049219-12.524219 25.048437 12.524219v37.573437h-50.097656z"/><path fill="#F3B141" d="M256.372656 362.817969l25.048438-12.524219-12.524219-6.2625-25.049219 12.524219v37.573437h12.525z"/><path fill="#000" fill-rule="nonzero" d="M381.617188 62.6226563H5.8828125c-3.24296875 0-5.87109375 2.6289062-5.87109375 5.8710937v263.014062c0 3.242188 2.628125 5.871094 5.87109375 5.871094H381.617188c3.242968 0 5.871093-2.628906 5.871093-5.871094V68.4929688c-.000781-3.2421875-2.628125-5.8703125-5.871093-5.8703125zM11.7539062 74.3640625H75.159375V325.635937H11.7539062V74.3640625zm75.146875 251.2718755V74.3640625H150.30625v32.4851565c0 3.242187 2.628125 5.871094 5.871094 5.871094 3.242968 0 5.871093-2.628907 5.871093-5.871094V74.3640625h63.405469V325.635938h-63.405469V134.246875c0-3.242187-2.628125-5.871094-5.871093-5.871094-3.242969 0-5.871094 2.628907-5.871094 5.871094v191.389063H86.9007812zm150.2937498-.000001V74.3640625H300.6V325.635937h-63.405469zm138.551563 0h-63.405469V74.3640625h63.405469V325.635937zM90.9289062 48.6953125l25.0492188 12.5242187c1.638281.81875 3.613281.81875 5.251562 0l25.049219-12.5242187c1.988281-.99375 3.245313-3.0273438 3.245313-5.2507813V5.87109375C149.524219 2.62890625 146.896094 0 143.653125 0H93.5554688C90.3125 0 87.684375 2.62890625 87.684375 5.87109375V43.4445312c-.0007812 2.2234375 1.2554688 4.25625 3.2445313 5.2507813zM99.425 11.7414062h38.35625V39.815625l-19.178125 9.5890625L99.425 39.815625V11.7414062zM296.571094 351.304688l-25.049219-12.524219c-1.652344-.826563-3.599219-.826563-5.251563 0l-25.049218 12.524219c-1.988282.99375-3.245313 3.027343-3.245313 5.250781v37.573437c0 3.242188 2.628125 5.871094 5.871094 5.871094h50.097656c3.242969 0 5.871094-2.628906 5.871094-5.871094v-37.573437c.000781-2.223438-1.255469-4.25625-3.244531-5.250781zM288.075 388.258594h-38.35625v-28.074219l19.178125-9.589063 19.178125 9.589063v28.074219z"/></g></svg>

<?xml version="1.0" encoding="UTF-8"?>
<svg width="388px" height="400px" viewBox="0 0 388 400" version="1.1" xmlns="http://www.w3.org/2000/svg" xmlns:xlink="http://www.w3.org/1999/xlink">
    <!-- Generator: Sketch 52.5 (67469) - http://www.bohemiancoding.com/sketch -->
    <title>gradient-generator</title>
    <desc>Created with Sketch.</desc>
    <g id="Page-1" stroke="none" stroke-width="1" fill="none" fill-rule="evenodd">
        <g id="gradient-generator">
            <polygon id="Path" fill="#E7DFF1" points="5.8828125 68.4929687 381.616406 68.4929687 381.616406 331.507031 5.8828125 331.507031"></polygon>
            <polygon id="Path" fill="#855FB8" points="5.8828125 68.4929687 81.0296875 68.4929687 81.0296875 331.507031 5.8828125 331.507031"></polygon>
            <polygon id="Path" fill="#7B49AD" points="24.6695312 312.720312 24.6695312 68.4929687 5.8828125 68.4929687 5.8828125 331.507031 81.0296875 331.507031 81.0296875 312.720312"></polygon>
            <polygon id="Path" fill="#9E7FC6" points="81.0296875 68.4929687 156.176563 68.4929687 156.176563 331.507031 81.0296875 331.507031"></polygon>
            <polygon id="Path" fill="#B69FD4" points="156.176563 68.4929687 231.323437 68.4929687 231.323437 331.507031 156.176563 331.507031"></polygon>
            <polygon id="Path" fill="#CEBFE2" points="231.323437 68.4929687 306.470312 68.4929687 306.470312 331.507031 231.323437 331.507031"></polygon>
            <polygon id="Path" fill="#855FB8" points="81.0296875 312.720312 156.176563 312.720312 156.176563 331.507031 81.0296875 331.507031"></polygon>
            <polygon id="Path" fill="#9E7FC6" points="156.176563 312.720312 231.323437 312.720312 231.323437 331.507031 156.176563 331.507031"></polygon>
            <polygon id="Path" fill="#B69FD4" points="231.323437 312.720312 306.470312 312.720312 306.470312 331.507031 231.323437 331.507031"></polygon>
            <polygon id="Path" fill="#CEBFE2" points="306.470312 312.720312 381.617188 312.720312 381.617188 331.507031 306.470312 331.507031"></polygon>
            <polygon id="Path" fill="#FCCA75" points="143.652344 43.4445312 118.603125 55.96875 93.5546875 43.4445312 93.5546875 5.87109375 143.652344 5.87109375"></polygon>
            <polygon id="Path" fill="#F3B141" points="106.078906 5.87109375 93.5546875 5.87109375 93.5546875 43.4445312 118.603125 55.96875 131.127344 49.70625 106.078906 37.1820313"></polygon>
            <polygon id="Path" fill="#FCCA75" points="243.847656 356.555469 268.896875 344.03125 293.945312 356.555469 293.945312 394.128906 243.847656 394.128906"></polygon>
            <polygon id="Path" fill="#F3B141" points="256.372656 362.817969 281.421094 350.29375 268.896875 344.03125 243.847656 356.555469 243.847656 394.128906 256.372656 394.128906"></polygon>
            <path d="M381.617188,62.6226563 L5.8828125,62.6226563 C2.63984375,62.6226563 0.01171875,65.2515625 0.01171875,68.49375 L0.01171875,331.507812 C0.01171875,334.75 2.63984375,337.378906 5.8828125,337.378906 L381.617188,337.378906 C384.860156,337.378906 387.488281,334.75 387.488281,331.507812 L387.488281,68.4929688 C387.4875,65.2507813 384.860156,62.6226563 381.617188,62.6226563 Z M11.7539062,74.3640625 L75.159375,74.3640625 L75.159375,325.635937 L11.7539062,325.635937 L11.7539062,74.3640625 Z M86.9007812,325.635938 L86.9007812,74.3640625 L150.30625,74.3640625 L150.30625,106.849219 C150.30625,110.091406 152.934375,112.720313 156.177344,112.720313 C159.420312,112.720313 162.048437,110.091406 162.048437,106.849219 L162.048437,74.3640625 L225.453906,74.3640625 L225.453906,325.635938 L162.048437,325.635938 L162.048437,134.246875 C162.048437,131.004688 159.420312,128.375781 156.177344,128.375781 C152.934375,128.375781 150.30625,131.004688 150.30625,134.246875 L150.30625,325.635938 L86.9007812,325.635938 Z M237.194531,325.635937 L237.194531,74.3640625 L300.6,74.3640625 L300.6,325.635937 L237.194531,325.635937 Z M375.746094,325.635937 L312.340625,325.635937 L312.340625,74.3640625 L375.746094,74.3640625 L375.746094,325.635937 Z M90.9289062,48.6953125 L115.978125,61.2195312 C117.616406,62.0382812 119.591406,62.0382812 121.229687,61.2195312 L146.278906,48.6953125 C148.267187,47.7015625 149.524219,45.6679687 149.524219,43.4445312 L149.524219,5.87109375 C149.524219,2.62890625 146.896094,0 143.653125,0 L93.5554688,0 C90.3125,0 87.684375,2.62890625 87.684375,5.87109375 L87.684375,43.4445312 C87.6835938,45.6679687 88.9398438,47.7007812 90.9289063,48.6953125 Z M99.425,11.7414062 L137.78125,11.7414062 L137.78125,39.815625 L118.603125,49.4046875 L99.425,39.815625 L99.425,11.7414062 Z M296.571094,351.304688 L271.521875,338.780469 C269.869531,337.953906 267.922656,337.953906 266.270312,338.780469 L241.221094,351.304688 C239.232812,352.298438 237.975781,354.332031 237.975781,356.555469 L237.975781,394.128906 C237.975781,397.371094 240.603906,400 243.846875,400 L293.944531,400 C297.1875,400 299.815625,397.371094 299.815625,394.128906 L299.815625,356.555469 C299.816406,354.332031 298.560156,352.299219 296.571094,351.304688 Z M288.075,388.258594 L249.71875,388.258594 L249.71875,360.184375 L268.896875,350.595312 L288.075,360.184375 L288.075,388.258594 Z" id="Shape" fill="#000000" fill-rule="nonzero"></path>
        </g>
    </g>
</svg>
